media/costumes/heart_face.svg

<svg width="117" height="105" viewBox="-1 -1 117 105" xmlns="http://www.w3.org/2000/svg"><defs><linearGradient id="a" y2="1"><stop offset="0" stop-color="#FF00BF"/><stop offset="1" stop-color="red"/></linearGradient></defs><path fill="#FFCCF2" stroke="#231F20" stroke-width="2" d="M47.545 39.447s10.347 3.054 14.217 3.896c3.867.842 10.851 1.684 10.851 1.684s-7.989 10.245-17.327 7.645c-9.339-2.597-9.171-8.485-7.741-13.225z" transform="matrix(.71457 -.4696 .654 .99516 -11.65 49.75)"/><path fill="url(#a)" d="M297.297 550.868c-13.775-15.436-48.17-45.529-76.434-66.874-83.744-63.242-95.142-72.394-129.144-103.703-62.684-57.72-89.305-115.71-89.214-194.34.044-38.384 2.661-53.172 13.41-75.797 18.236-38.386 45.1-66.909 79.445-84.355 24.325-12.355 36.323-17.845 76.944-18.069 42.494-.235 51.439 4.719 76.435 18.451 30.425 16.715 61.74 52.436 68.213 77.811l3.999 15.672 9.859-21.584c55.716-121.973 233.599-120.148 295.502 3.032 19.638 39.076 21.794 122.513 4.381 169.512-22.716 61.31-65.38 108.051-164.007 179.677-64.681 46.974-137.885 118.046-142.98 128.028-5.916 11.588-.283 1.816-26.409-27.461z" transform="translate(.3 -.75) scale(.1807)"/><path fill="#FFF" stroke="#231F20" d="M47.545 39.447s10.347 3.054 14.217 3.896c3.867.842 10.851 1.684 10.851 1.684s-7.989 10.245-17.327 7.645c-9.339-2.597-9.171-8.485-7.741-13.225z" transform="matrix(.64712 -.42527 .59226 .90123 -3.55 49)"/><g stroke-width="2"><path fill="#FFF" stroke="#FFF" d="M46.763 31.905c1.913 0 3.647 1.06 4.902 2.771 1.255 1.712 2.032 4.075 2.032 6.684s-.777 4.972-2.032 6.684c-1.255 1.711-2.989 2.77-4.902 2.77-1.913 0-3.646-1.059-4.901-2.77-1.256-1.712-2.032-4.075-2.032-6.684s.776-4.972 2.032-6.684c1.255-1.71 2.988-2.77 4.901-2.77z" stroke-width="1.681"/><path stroke="#000" d="M233.125 172.5c.241 0 .46.168.619.44.158.271.256.646.256 1.06 0 .414-.098.789-.256 1.06-.159.272-.378.44-.619.44s-.46-.168-.619-.44c-.158-.271-.256-.646-.256-1.06 0-.414.098-.789.256-1.06.159-.272.378-.44.619-.44z" transform="matrix(2.06775 0 0 1.58933 -435.25 -231.6)"/></g><g stroke-width="2"><path fill="#FFF" stroke="#FFF" d="M71.013 32.505c1.913 0 3.647 1.06 4.902 2.771 1.255 1.712 2.032 4.075 2.032 6.684s-.777 4.972-2.032 6.684c-1.255 1.711-2.989 2.77-4.902 2.77-1.913 0-3.646-1.059-4.901-2.77-1.256-1.712-2.032-4.075-2.032-6.684s.776-4.972 2.032-6.684c1.255-1.71 2.988-2.77 4.901-2.77z" stroke-width="1.681"/><path stroke="#000" d="M233.125 172.5c.241 0 .46.168.619.44.158.271.256.646.256 1.06 0 .414-.098.789-.256 1.06-.159.272-.378.44-.619.44s-.46-.168-.619-.44c-.158-.271-.256-.646-.256-1.06 0-.414.098-.789.256-1.06.159-.272.378-.44.619-.44z" transform="matrix(2.06775 0 0 1.58933 -411 -231)"/></g></svg>

<svg version="1.1" width="117" height="105" viewBox="-1 -1 117 105" xmlns="http://www.w3.org/2000/svg" xmlns:xlink="http://www.w3.org/1999/xlink">
  <defs>
    <linearGradient id="grad_1" y2="1">
      <stop offset="0" stop-color="#FF00BF" stop-opacity="1"/>
      <stop offset="1" stop-color="#FF0000" stop-opacity="1"/>
    </linearGradient>
  </defs>
  <!-- Exported by Scratch - http://scratch.mit.edu/ -->
  <path id="Mouth" fill="#FFCCF2" stroke="#231F20" stroke-width="2" d="M 47.545 39.447 C 47.545 39.447 57.892 42.501 61.762 43.343 C 65.629 44.185 72.613 45.027 72.613 45.027 C 72.613 45.027 64.624 55.272 55.286 52.672 C 45.947 50.075 46.115 44.187 47.545 39.447 Z " transform="matrix(0.714573323726654, -0.46959757804870605, 0.6539945602416992, 0.9951649308204651, -11.65, 49.75)"/>
  <path id="path2417" fill="url(#grad_1)" d="M 297.297 550.868 C 283.522 535.432 249.127 505.339 220.863 483.994 C 137.119 420.752 125.721 411.600 91.719 380.291 C 29.035 322.571 2.414 264.581 2.505 185.951 C 2.549 147.567 5.166 132.779 15.915 110.154 C 34.151 71.768 61.015 43.245 95.360 25.799 C 119.685 13.444 131.683 7.954 172.304 7.730 C 214.798 7.495 223.743 12.449 248.739 26.181 C 279.164 42.896 310.479 78.617 316.952 103.992 L 320.951 119.664 L 330.810 98.080 C 386.526 -23.893 564.409 -22.068 626.312 101.112 C 645.950 140.188 648.106 223.625 630.693 270.624 C 607.977 331.934 565.313 378.675 466.686 450.301 C 402.005 497.275 328.801 568.347 323.706 578.329 C 317.790 589.917 323.423 580.145 297.297 550.868 Z " transform="matrix(0.18069124221801758, 0, 0, 0.18069124221801758, 0.3, -0.75)"/>
  <path id="Mouth" fill="#FFFFFF" stroke="#231F20" stroke-width="1" d="M 47.545 39.447 C 47.545 39.447 57.892 42.501 61.762 43.343 C 65.629 44.185 72.613 45.027 72.613 45.027 C 72.613 45.027 64.624 55.272 55.286 52.672 C 45.947 50.075 46.115 44.187 47.545 39.447 Z " transform="matrix(0.6471225619316101, -0.42527082562446594, 0.5922620892524719, 0.9012283682823181, -3.55, 49)"/>
  <g id="ID0.03337077610194683">
    <path id="ID0.03272545896470547" fill="#FFFFFF" stroke="#FFFFFF" stroke-width="2" d="M 242.750 177 C 245.026 177 247.089 178.261 248.582 180.297 C 250.076 182.334 251 185.146 251 188.250 C 251 191.354 250.076 194.166 248.582 196.203 C 247.089 198.239 245.026 199.500 242.750 199.500 C 240.474 199.500 238.411 198.239 236.918 196.203 C 235.424 194.166 234.500 191.354 234.500 188.250 C 234.500 185.146 235.424 182.334 236.918 180.297 C 238.411 178.261 240.474 177 242.750 177 Z " transform="matrix(0.8404255509376526, 0, 0, 0.8404255509376526, -157.25, -116.85)"/>
    <path id="ID0.5116554019041359" fill="#000000" stroke="#000000" stroke-width="2" d="M 233.125 172.500 C 233.366 172.500 233.585 172.668 233.744 172.940 C 233.902 173.211 234 173.586 234 174 C 234 174.414 233.902 174.789 233.744 175.060 C 233.585 175.332 233.366 175.500 233.125 175.500 C 232.884 175.500 232.665 175.332 232.506 175.060 C 232.348 174.789 232.250 174.414 232.250 174 C 232.250 173.586 232.348 173.211 232.506 172.940 C 232.665 172.668 232.884 172.500 233.125 172.500 Z " transform="matrix(2.067746162414551, 0, 0, 1.5893266201019287, -435.25, -231.6)"/>
  </g>
  <g id="ID0.03337077610194683">
    <path id="ID0.03272545896470547" fill="#FFFFFF" stroke="#FFFFFF" stroke-width="2" d="M 242.750 177 C 245.026 177 247.089 178.261 248.582 180.297 C 250.076 182.334 251 185.146 251 188.250 C 251 191.354 250.076 194.166 248.582 196.203 C 247.089 198.239 245.026 199.500 242.750 199.500 C 240.474 199.500 238.411 198.239 236.918 196.203 C 235.424 194.166 234.500 191.354 234.500 188.250 C 234.500 185.146 235.424 182.334 236.918 180.297 C 238.411 178.261 240.474 177 242.750 177 Z " transform="matrix(0.8404255509376526, 0, 0, 0.8404255509376526, -133, -116.25)"/>
    <path id="ID0.5116554019041359" fill="#000000" stroke="#000000" stroke-width="2" d="M 233.125 172.500 C 233.366 172.500 233.585 172.668 233.744 172.940 C 233.902 173.211 234 173.586 234 174 C 234 174.414 233.902 174.789 233.744 175.060 C 233.585 175.332 233.366 175.500 233.125 175.500 C 232.884 175.500 232.665 175.332 232.506 175.060 C 232.348 174.789 232.250 174.414 232.250 174 C 232.250 173.586 232.348 173.211 232.506 172.940 C 232.665 172.668 232.884 172.500 233.125 172.500 Z " transform="matrix(2.067746162414551, 0, 0, 1.5893266201019287, -411, -231)"/>
  </g>
</svg>
